X:3147
T:Bergslagshambo
C:Helge Damberg, 1885 - 1961
N:Damberg var först verksam som militärmusiker i Göteborg och sedemera som restaurang- och teaterkapellmästare och känd som arrangör och kompositör, bl.a. till ett stort antal marscher.
R:Hambo
O:Göteborg
Z:Per Oldberg 2003-02
S: http://www.youtube.com/watch?v=ad7YHG3Qp_w
M:3/4
L:1/8
K:Dmaj
|: "D"F>E F>G A>B | A>F D>F A,2 | "A7"(3GAG F>G E2 | "D"(3FGF E>F D2 |  
"D" F>E F>G A>B | A>F D>F A,2 | "A7"(3GAG (3FGF (3EFE | "D"D2 D4 :|
|: "Bm"(3dcB (3dcB (3dcB | "F#7"(3dcB c4 | (3cB^A (3cB^A (3cB^A  | "Bm"(3cB^A B4 | 
"Em"(3gfg (3bge (3Beg | "Bm"(3fef (3bfd (3Bdf | "F#7"(3efg f>e d>c | "Bm"B>c d>e f2 |
"Bm"(3dcB (3dcB (3dcB | "F#7"(3dcB c4 | (3cB^A (3cB^A (3cB^A  | "Bm"(3cB^A B4 | 
"Em"(3gfg (3bge (3Beg | "Bm"(3fef (3bfd (3Bdf | "F#7"(3efg f>e d>c | "Bm"B2B4 :| 
|: [K:Gmaj]"G"(3B,C^C (3DEF (3GA^A | (3B^AB e>B d2 | D(3D/E/D/ ^C>D E>D | "D7"G2F4 | 
"D7"(3D^CD (3EFG (3A^AB | (3ccB c>B c2 | D(3D/E/D/ ^C>D B>F | "G"A2G4 |
"G"(3B,C^C (3DEF (3GA^A | (3B^AB e>B d2 | "G7"D(3D/E/D/ ^C>D A>G | "C"F2E4 |
"C"(3GFE (3GFE (3GFE | "G"(3cBA B>G D>A | "D7"(3BA^G A>D F>A | "G"G2G4 :| 

(:musicend:)
(:music:)
